flaticon/grooming/makeup-3.svg

<svg xmlns="http://www.w3.org/2000/svg" width="32" height="32" viewBox="0 0 24 24">
    <path d="M23.601562 7.199219C23.839844 7.199219 24 7.039062 24 6.800781 24 6.558594 23.839844 6.398438 23.601562 6.398438L21.601562 6.398438 21.601562 6 23.601562 6C23.839844 6 24 5.839844 24 5.601562 24 5.359375 23.839844 5.199219 23.601562 5.199219L21.601562 5.199219 21.601562 4.800781 23.199219 4.800781C23.441406 4.800781 23.601562 4.640625 23.601562 4.398438 23.601562 4.160156 23.441406 4 23.199219 4L21.601562 4 21.601562 3.601562 22.800781 3.601562C23.039062 3.601562 23.199219 3.441406 23.199219 3.199219 23.199219 2.960938 23.039062 2.800781 22.800781 2.800781L21.601562 2.800781 21.601562 2.398438 22.398438 2.398438C22.640625 2.398438 22.800781 2.242188 22.800781 2 22.800781 1.761719 22.640625 1.601562 22.398438 1.601562L21.601562 1.601562 21.601562 1.199219 22 1.199219C22.238281 1.199219 22.398438 1.039062 22.398438.800781 22.398438.558594 22.238281.398438 22 .398438L21.601562.398438C21.601562.160156 21.441406 0 21.199219 0 20.960938 0 20.800781.160156 20.800781.398438L20.398438.398438C20.160156.398438 20 .558594 20 .800781 20 1.039062 20.160156 1.199219 20.398438 1.199219L20.800781 1.199219 20.800781 1.601562 20 1.601562C19.761719 1.601562 19.601562 1.761719 19.601562 2 19.601562 2.238281 19.761719 2.398438 20 2.398438L20.800781 2.398438 20.800781 2.800781 19.601562 2.800781C19.359375 2.800781 19.199219 2.960938 19.199219 3.199219 19.199219 3.441406 19.359375 3.601562 19.601562 3.601562L20.800781 3.601562 20.800781 4 19.199219 4C18.960938 4 18.800781 4.160156 18.800781 4.398438 18.800781 4.640625 18.960938 4.800781 19.199219 4.800781L20.800781 4.800781 20.800781 5.199219 18.800781 5.199219C18.558594 5.199219 18.398438 5.359375 18.398438 5.601562 18.398438 5.839844 18.558594 6 18.800781 6L20.800781 6 20.800781 6.398438 18.800781 6.398438C18.558594 6.398438 18.398438 6.558594 18.398438 6.800781 18.398438 7.039062 18.558594 7.199219 18.800781 7.199219L20.800781 7.199219 20.800781 7.601562 18.800781 7.601562C18.558594 7.601562 18.398438 7.757812 18.398438 8 18.398438 8.238281 18.558594 8.398438 18.800781 8.398438L20.800781 8.398438 20.800781 8.800781 18.800781 8.800781C18.558594 8.800781 18.398438 8.960938 18.398438 9.199219 18.398438 9.441406 18.558594 9.597656 18.800781 9.597656L20.800781 9.597656 20.800781 10 19.199219 10C18.960938 10 18.800781 10.160156 18.800781 10.398438 18.800781 10.640625 18.960938 10.800781 19.199219 10.800781L20.800781 10.800781 20.800781 11.199219 19.601562 11.199219C19.359375 11.199219 19.199219 11.359375 19.199219 11.597656 19.199219 11.839844 19.359375 12 19.601562 12L20.800781 12 20.800781 12.398438 20 12.398438C19.761719 12.398438 19.601562 12.558594 19.601562 12.800781 19.601562 13.039062 19.761719 13.199219 20 13.199219L20.800781 13.199219 20.800781 14.800781 20.320312 14.800781C19.71875 14.800781 19.199219 15.320312 19.199219 15.917969L19.199219 16.800781 18.398438 16.800781 18.398438 24 24 24 24 16.800781 23.199219 16.800781 23.199219 15.921875C23.199219 15.320312 22.679688 14.800781 22.078125 14.800781L21.601562 14.800781 21.601562 13.199219 22.398438 13.199219C22.640625 13.199219 22.800781 13.039062 22.800781 12.800781 22.800781 12.558594 22.640625 12.398438 22.398438 12.398438L21.601562 12.398438 21.601562 12 22.800781 12C23.039062 12 23.199219 11.839844 23.199219 11.601562 23.199219 11.359375 23.039062 11.199219 22.800781 11.199219L21.601562 11.199219 21.601562 10.800781 23.199219 10.800781C23.441406 10.800781 23.601562 10.640625 23.601562 10.398438 23.601562 10.160156 23.441406 10 23.199219 10L21.601562 10 21.601562 9.601562 23.601562 9.601562C23.839844 9.601562 24 9.441406 24 9.199219 24 8.960938 23.839844 8.800781 23.601562 8.800781L21.601562 8.800781 21.601562 8.398438 23.601562 8.398438C23.839844 8.398438 24 8.242188 24 8 24 7.761719 23.839844 7.601562 23.601562 7.601562L21.601562 7.601562 21.601562 7.199219zM23.199219 23.199219L19.199219 23.199219 19.199219 17.601562 23.199219 17.601562zM22.398438 15.921875L22.398438 16.800781 20 16.800781 20 15.921875C20 15.761719 20.160156 15.601562 20.320312 15.601562L22.078125 15.601562C22.238281 15.601562 22.398438 15.761719 22.398438 15.921875zM15.199219 6.203125C15.269531 5.789062 15.179688 5.421875 14.921875 5.160156 14.601562 4.839844 14.121094 4.761719 13.558594 4.960938 13.078125 5.121094 12.601562 5.441406 12.160156 5.878906 11.71875 6.320312 11.398438 6.800781 11.238281 7.28125 11.136719 7.636719 11.117188 7.964844 11.199219 8.234375L11.199219 13.199219 10.398438 13.199219 10.398438 24 16 24 16 13.199219 15.199219 13.199219zM12 7.519531C12.121094 7.160156 12.359375 6.71875 12.71875 6.398438 13.078125 6.078125 13.480469 5.800781 13.839844 5.679688 14 5.601562 14.121094 5.601562 14.199219 5.601562 14.28125 5.601562 14.359375 5.640625 14.398438 5.71875 14.441406 5.761719 14.460938 5.839844 14.457031 5.949219 14.429688 5.988281 14.410156 6.03125 14.398438 6.078125 14.320312 6.480469 14.039062 6.921875 13.640625 7.320312 12.921875 8.039062 12.160156 8.199219 12 8.039062 12 8.039062 12 8.039062 11.960938 8 11.953125 7.964844 11.941406 7.933594 11.925781 7.90625 11.917969 7.816406 11.9375 7.691406 12 7.519531zM12 8.90625C12.0625 8.914062 12.128906 8.921875 12.199219 8.921875 12.398438 8.921875 12.601562 8.878906 12.800781 8.839844 13.28125 8.679688 13.761719 8.359375 14.199219 7.921875 14.269531 7.851562 14.335938 7.777344 14.398438 7.707031L14.398438 13.199219 12 13.199219zM15.199219 23.199219L11.199219 23.199219 11.199219 16 15.199219 16zM11.199219 15.199219L11.199219 14 15.199219 14 15.199219 15.199219zM7.601562 1.199219C7.839844 1.199219 8 1.039062 8 .800781 8 .558594 7.839844.398438 7.601562.398438L3.199219.398438C3.128906.398438 3.066406.414062 3.011719.441406L1.921875.441406C.878906.441406 0 1.28125 0 2.359375L0 21.28125C0 22.320312.839844 23.199219 1.921875 23.199219L7.601562 23.199219C7.839844 23.199219 8 23.039062 8 22.800781 8 22.558594 7.839844 22.398438 7.601562 22.398438L3.601562 22.398438 3.601562 21.199219 7.601562 21.199219C7.839844 21.199219 8 21.039062 8 20.800781 8 20.558594 7.839844 20.398438 7.601562 20.398438L3.601562 20.398438 3.601562 19.199219 7.601562 19.199219C7.839844 19.199219 8 19.039062 8 18.800781 8 18.558594 7.839844 18.398438 7.601562 18.398438L3.601562 18.398438 3.601562 17.199219 7.601562 17.199219C7.839844 17.199219 8 17.039062 8 16.800781 8 16.558594 7.839844 16.398438 7.601562 16.398438L3.601562 16.398438 3.601562 15.199219 7.601562 15.199219C7.839844 15.199219 8 15.039062 8 14.800781 8 14.558594 7.839844 14.398438 7.601562 14.398438L3.601562 14.398438 3.601562 13.199219 7.601562 13.199219C7.839844 13.199219 8 13.039062 8 12.800781 8 12.558594 7.839844 12.398438 7.601562 12.398438L3.601562 12.398438 3.601562 11.199219 7.601562 11.199219C7.839844 11.199219 8 11.039062 8 10.800781 8 10.558594 7.839844 10.402344 7.601562 10.402344L3.601562 10.402344 3.601562 9.199219 7.601562 9.199219C7.839844 9.199219 8 9.039062 8 8.800781 8 8.558594 7.839844 8.402344 7.601562 8.402344L3.601562 8.402344 3.601562 7.199219 7.601562 7.199219C7.839844 7.199219 8 7.039062 8 6.800781 8 6.558594 7.839844 6.402344 7.601562 6.402344L3.601562 6.402344 3.601562 5.199219 7.601562 5.199219C7.839844 5.199219 8 5.039062 8 4.800781 8 4.5625 7.839844 4.402344 7.601562 4.402344L3.601562 4.402344 3.601562 3.199219 7.601562 3.199219C7.839844 3.199219 8 3.039062 8 2.800781 8 2.5625 7.839844 2.402344 7.601562 2.402344L3.601562 2.402344 3.601562 1.199219zM.800781 21.28125L.800781 2.359375C.800781 1.71875 1.320312 1.199219 1.921875 1.199219L2.800781 1.199219 2.800781 22.398438 1.921875 22.398438C1.320312 22.398438.800781 21.921875.800781 21.28125zM.800781 21.28125"/>
</svg>

<svg xmlns="http://www.w3.org/2000/svg" width="32" height="32" viewBox="0 0 24 24">
    <path d="M23.602 7.2c.238 0 .398-.16.398-.4 0-.241-.16-.402-.398-.402h-2V6h2c.238 0 .398-.16.398-.398 0-.243-.16-.403-.398-.403h-2v-.398h1.597c.242 0 .403-.16.403-.403 0-.238-.16-.398-.403-.398h-1.597v-.398H22.8c.238 0 .398-.16.398-.403 0-.238-.16-.398-.398-.398h-1.2v-.403h.797c.243 0 .403-.156.403-.398 0-.238-.16-.398-.403-.398h-.796v-.403H22c.238 0 .398-.16.398-.398 0-.242-.16-.403-.398-.403h-.398c0-.238-.16-.398-.403-.398-.238 0-.398.16-.398.398h-.403c-.238 0-.398.16-.398.403 0 .238.16.398.398.398h.403v.403H20c-.238 0-.398.16-.398.398 0 .238.16.398.398.398h.8v.403h-1.198c-.243 0-.403.16-.403.398 0 .242.16.403.403.403H20.8V4h-1.602c-.238 0-.398.16-.398.398 0 .243.16.403.398.403h1.602v.398h-2c-.242 0-.403.16-.403.403 0 .238.16.398.403.398h2v.398h-2c-.242 0-.403.16-.403.403 0 .238.16.398.403.398h2v.403h-2c-.242 0-.403.156-.403.398 0 .238.16.398.403.398h2v.403h-2c-.242 0-.403.16-.403.398 0 .242.16.399.403.399h2V10h-1.602c-.238 0-.398.16-.398.398 0 .243.16.403.398.403h1.602v.398h-1.2c-.242 0-.402.16-.402.399 0 .242.16.402.403.402H20.8v.398H20c-.238 0-.398.16-.398.403 0 .238.16.398.398.398h.8v1.602h-.48c-.601 0-1.12.52-1.12 1.117v.883h-.802V24H24v-7.2h-.8v-.878c0-.602-.52-1.121-1.122-1.121h-.476v-1.602h.796c.243 0 .403-.16.403-.398 0-.242-.16-.403-.403-.403h-.796V12H22.8c.238 0 .398-.16.398-.398 0-.243-.16-.403-.398-.403h-1.2v-.398H23.2c.242 0 .403-.16.403-.403 0-.238-.16-.398-.403-.398h-1.597v-.398h2c.238 0 .398-.16.398-.403 0-.238-.16-.398-.398-.398h-2v-.403h2c.238 0 .398-.156.398-.398 0-.238-.16-.398-.398-.398h-2v-.403zm-.403 16h-4v-5.598h4zm-.8-7.278v.879H20v-.88c0-.16.16-.32.32-.32h1.758c.16 0 .32.16.32.32zm0 0M15.2 6.203c.07-.414-.02-.781-.278-1.043-.32-.32-.8-.398-1.363-.2-.48.161-.957.481-1.399.919-.441.441-.762.922-.922 1.402-.101.356-.12.684-.039.953V13.2h-.8V24H16V13.2h-.8zM12 7.52c.121-.36.36-.801.719-1.122.36-.32.761-.597 1.12-.718.161-.078.282-.078.36-.078.082 0 .16.039.2.117.042.043.062.12.058.23a.386.386 0 0 0-.059.13c-.078.401-.359.843-.757 1.241-.72.72-1.48.88-1.641.72L11.96 8a.334.334 0 0 0-.034-.094A.944.944 0 0 1 12 7.52zm0 1.386c.063.008.129.016.2.016.198 0 .402-.043.6-.082.481-.16.962-.48 1.4-.918.07-.07.136-.145.198-.215v5.492H12zM15.2 23.2h-4V16h4zm-4-8V14h4v1.2zm0 0M7.602 1.2C7.84 1.2 8 1.04 8 .8 8 .56 7.84.399 7.602.399H3.199a.414.414 0 0 0-.187.043h-1.09A1.92 1.92 0 0 0 0 2.36v18.922c0 1.04.84 1.918 1.922 1.918h5.68c.238 0 .398-.16.398-.398 0-.242-.16-.403-.398-.403h-4V21.2h4c.238 0 .398-.16.398-.398 0-.242-.16-.403-.398-.403h-4V19.2h4c.238 0 .398-.16.398-.398 0-.242-.16-.403-.398-.403h-4V17.2h4c.238 0 .398-.16.398-.398 0-.242-.16-.403-.398-.403h-4V15.2h4c.238 0 .398-.16.398-.398 0-.242-.16-.403-.398-.403h-4V13.2h4c.238 0 .398-.16.398-.398 0-.242-.16-.403-.398-.403h-4V11.2h4c.238 0 .398-.16.398-.398 0-.242-.16-.399-.398-.399h-4V9.2h4C7.84 9.2 8 9.04 8 8.801c0-.242-.16-.399-.398-.399h-4V7.2h4C7.84 7.2 8 7.04 8 6.801c0-.242-.16-.399-.398-.399h-4V5.2h4C7.84 5.2 8 5.04 8 4.801c0-.239-.16-.399-.398-.399h-4V3.2h4C7.84 3.2 8 3.04 8 2.801c0-.239-.16-.399-.398-.399h-4V1.2zM.8 21.28V2.36c0-.64.52-1.16 1.12-1.16h.88v21.2h-.88a1.115 1.115 0 0 1-1.12-1.118zm0 0"/>
</svg>
